!!!COM: Palestrina, Giovanni Perluigi da
!!!OPR: Ave regina coelorum
!!!OTL: Benedictus
**kern	**kern	**kern
*Itenor	*Icalto	*Icant
!Tenor	!Altus	!Cantus
*clefGv2	*clefG2	*clefG2
*k[]	*k[]	*k[]
*C:ion	*C:ion	*C:ion
*M4/2	*M4/2	*M4/2
=1	=1	=1
0r	1g	1r
.	2.a	1cc
.	4b	.
=2	=2	=2
0r	1cc	2.ee
.	.	4ff
.	1b	1gg
=3	=3	=3
0r	1.a	1ff
.	.	1ee
.	2g	.
=4	=4	=4
0r	2f	1dd
.	2g	.
.	2a	1cc
.	2e	.
=5	=5	=5
1r	2f	1dd
.	2.g	.
1c	.	[1ee
.	4f	.
.	4e	.
.	4d	.
=6	=6	=6
2.e	2c	1ee]
.	1cc	.
4f	.	.
1g	.	1dd
.	2b	.
=7	=7	=7
1f	1a	2r
.	.	2dd
1e	2r	2ee
.	2g	[2gg
=8	=8	=8
1d	2.a	2gg]
.	.	2ff#
.	4b	.
1c	1cc	2ee
.	.	[2gg
=9	=9	=9
1d	2b	2gg]
.	2a	2ff#
[1e	2g	4gg
.	.	4ff
.	4c	4ee
.	4d	4dd
=10	=10	=10
1e]	4e	4cc
.	4f	4b
.	1g	4b
.	.	8a
.	.	8g
2.d	.	1a
.	2f#	.
4c	.	.
=11	=11	=11
2B	1g	2r
1c	.	2g
.	2r	2a
2B	2d	2b
=12	=12	=12
1A	2e	1.cc
.	2f#	.
1G	[1g	.
.	.	2b
=13	=13	=13
1d	2g]	2.a
.	2f	.
.	.	4b
1r	2.e	4cc
.	.	4dd
.	.	[2ee
.	4f	.
=14	=14	=14
0r	4g	4ee]
.	4a	4cc
.	4b	4dd
.	4g	4ee
.	4a	2ff
.	4b	.
.	2cc	2ee
=15	=15	=15
2r	2b	2dd
2c	1a	2cc
2d	.	2b
2e	2g#	2b
=16	=16	=16
1.f	1a	2a
.	.	2cc
.	1r	2dd
2e	.	2ee
=17	=17	=17
2.d	0r	1.ff
4e	.	.
4f	.	.
4g	.	.
[2a	.	4ee
.	.	4dd
=18	=18	=18
4a]	1r	2ee
4g	.	.
4e	.	4gg
4f	.	4ff
2g	1c	4ee
.	.	4dd
2a	.	4cc
.	.	4b
=19	=19	=19
2f	2d	4a
.	.	4b
2e	2e	1cc
2d	[1f	.
2d	.	2b
=20	=20	=20
1c	2f]	2cc
.	2e	2g
2r	1d	2a
2G	.	2b
=21	=21	=21
2A	2r	2cc
2B	2d	4b
.	.	4a
[1c	2.e	1g
.	4f	.
=22	=22	=22
2c]	1g	0r
2B	.	.
2.A	2f	.
.	[2e	.
4B	.	.
=23	=23	=23
4c	4e]	0r
4d	4f	.
4e	4g	.
4c	4a	.
4d	4b	.
4e	4g	.
2f	4a	.
.	4b	.
=24	=24	=24
2.e	2cc	2r
.	2b	2g
4d	.	.
2c	2a	2a
2B	[2g	2b
=25	=25	=25
2A	2g]	1.cc
2A	2f#	.
2G	1g	.
[2g	.	2b
=26	=26	=26
2g]	1d	2.a
1f	.	.
.	.	4b
.	2r	4cc
.	.	4dd
2e	2g	4ee
.	.	4cc
=27	=27	=27
1d	2.a	4dd
.	.	4ee
.	.	1ff
.	4b	.
2.c	[1cc	.
.	.	2ee
4c	.	.
=28	=28	=28
2g	2cc]	1dd
2G	2b	.
2A	2a	2r
2B	4g	2gg
.	4f	.
=29	=29	=29
1.c	2e	4gg
.	.	4ff
.	2g	4ee
.	.	4dd
.	2a	2cc
2B	2b	2dd
=30	=30	=30
2.A	2.cc	0ee
4B	4b	.
4c	2a	.
4d	.	.
4e	2g	.
4c	.	.
=31	=31	=31
4d	2f	2.dd
4e	.	.
1f	1a	.
.	.	8cc
.	.	8b
.	.	4cc
.	.	4b
2e	[2g	4a
.	.	4g
=32	=32	=32
1.d	2g]	1.a
.	4f#	.
.	4e	.
.	2f#	.
2d	2f#	2a
=33	=33	=33
0G	0g	0b
*-	*-	*-
!! Hosanna
**kern	**kern	**kern	**kern
*Ibass	*Itenor	*Icalto	*Icant
!Bassus	!Tenor	!Altus	!Cantus
*clefF4	*clefGv2	*clefG2	*clefG2
*k[]	*k[]	*k[]	*k[]
*C:ion	*C:ion	*C:ion	*C:ion
*M3/2	*M3/2	*M3/2	*M3/2
=34	=34	=34	=34
1r	1r	1cc	2r
.	.	.	1gg
2r	2r	2b	.
=35	=35	=35	=35
1r	1r	2a	2ff
.	.	1g	2ee
2r	2r	.	[2dd
=36	=36	=36	=36
1r	1r	2.f	2dd]
.	.	.	2cc
.	.	4e	.
2r	2r	2d	2dd
=37	=37	=37	=37
1r	1r	2c	1ee
.	.	1f	.
2r	2r	.	2dd
=38	=38	=38	=38
1c	2r	1e	1ee
.	1g	.	.
2B	.	2r	2r
=39	=39	=39	=39
2A	2f	1cc	1r
1G	2e	.	.
.	[2d	2b	2r
=40	=40	=40	=40
2.F	2d]	1a	1r
.	2c	.	.
4E	.	.	.
2D	2d	2f	2r
=41	=41	=41	=41
2C	1e	2g	1r
1F	.	1a	.
.	2d	.	2r
=42	=42	=42	=42
1E	1e	1g	2r
.	.	.	2ee
2r	[2g	[2b	2dd
=43	=43	=43	=43
1r	2g]	2b]	2ee
.	2f	2a	2ff
2r	2g	2b	[2ee
=44	=44	=44	=44
1r	2a	2.cc	4ee]
.	.	.	4dd
.	4A	.	4cc
.	4B	4b	4dd
2r	4c	2a	4ee
.	4d	.	4ff
=45	=45	=45	=45
1r	2e	2g	1gg
.	1d	1a	.
2r	.	.	2ff#
=46	=46	=46	=46
2c	2e	1g	1.gg
2B	2d	.	.
2c	2e	2r	.
=47	=47	=47	=47
2.d	2.f	2r	1r
.	.	2a	.
4c	4e	.	.
2B	2d	2g	2r
=48	=48	=48	=48
2A	2c	2a	1r
2.G	2d	2.b	.
.	4G	.	2r
4F	4A	4a	.
=49	=49	=49	=49
2E	4B	2g	1r
.	4c	.	.
2D	2.d	2f	.
2E	.	2g	2r
.	4c	.	.
=50	=50	=50	=50
2F	1c	2a	1r
1D	.	1f	.
.	2B	.	2r
=51	=51	=51	=51
1C	1c	2e	2r
.	.	2cc	2ee
2r	2r	2b	2dd
=52	=52	=52	=52
1r	1r	2cc	2ee
.	.	2a	1ff
2r	2r	2f	.
=53	=53	=53	=53
2c	2e	1g	2ee
2B	2d	.	4gg
.	.	.	4ff
2c	2e	2g	4ee
.	.	.	4dd
=54	=54	=54	=54
2A	2.f	1a	4cc
.	.	.	4b
2F	.	.	2a
.	4e	.	.
2G	2d	2g	2b
=55	=55	=55	=55
2A	2c	2f	1cc
1G	1d	1g	.
.	.	.	2b
=56	=56	=56	=56
1C	1c	2g	2cc
.	.	2cc	2ee
2r	2r	2b	2dd
=57	=57	=57	=57
1r	1r	2cc	2ee
.	.	2a	1ff
2r	2r	2f	.
=58	=58	=58	=58
2c	2e	1g	2ee
2B	2d	.	4gg
.	.	.	4ff
2c	2e	2g	4ee
.	.	.	4dd
=59	=59	=59	=59
2A	2.f	1a	4cc
.	.	.	4b
2F	.	.	2a
.	4e	.	.
2G	2d	2g	2b
=60	=60	=60	=60
2A	2c	2f	1cc
1G	1d	1g	.
.	.	.	2b
=61	=61	=61	=61
1.C	1.c	1.g	1.cc
==	==	==	==
*-	*-	*-	*-
!!!CDT: 1525/^1526/-1594/2/2
!!!OCY: Italia
!!!AGN: Mass (Paraphrase)
!!!AST: renaissance, vocal
!!!ASW: Antiphon
!!!PWK: Masses, Book 9
!!!RNB: Cadence finals: G
!!!YOR: Le Opere Complete, v. 25, p. 1
!!!YOO: Rome, Italy: Fratelli Scalera
!!!END: 1992//
!!!EED: John Miller
!!!YEC: Copyright 2000, John Miller
!!!YEN: United States of America
!!!YEM: Rights to all derivative electronic formats reserved.
!!!YEM: Refer to licensing agreement for further details.
!!!YEM: This file must be accompanied by the licensing agreement.
!!!YEM: A copy of the licensing agreement may be found at http://www.music-cog.ohio-state.edu/HumdrumDatabases/Palestrina/license.txt
!!!EMD: converted to Humdrum by Bret Aarden
